X:1884
T:Polska efter Sven i Väse
R:Polska
S:Efter Sven Larsson
O:Väse, Värmland
B:
Z:ABC-transkribering av Per Saxholm
M:3/4
L:1/8
K:G
|D2G2A2|BBd4|dcc2FA|AF GB D2|D2G2A2|BBd4|dcc2 FA|AF G4:|gf e2 ce|ed (3BdB GB|dB cA FA|AF GB D2|gf e2 ce|ed (3BdB GB|dB cA FA|AF G4:| 
(:musicend:)
(:music:)
